X: 11070
T: O-N-E POLKA
C: Bob McQuillen 26 Dec 01
B: Bob's Note Book 11 #70
R: polka, reel
Z: 2020 John Chambers <jc:trillian.mit.edu>
N: The 1st part has 20 bars; the 2nd part has 16 bars, for 36 bars total.
N: Turned the last notes into half notes, to give those bars 4 beats.
M: C
L: 1/8
K: D
|: A2FA BAFA | d2de fdAd | f2fa fded | c2B2 B4 || e2ef gfe2 | c2cd edc2 | ABcd edcB | B2A2 A4 || A2FA BAFA |
| d2de fdAd | f2df afed | c2B2 B4 || B2g2 g4 | A2f2 f4 | gagf efg2 | a2ag fga2 | B2g2 g4 | A2f2 f4 |
| gagf edce | d2f2 d4 |]| f2dB ABde | f2dB A4 | f2df afed | c2e2 e4 || e2ef gfe2 | c2cd edc2 | a2a2 efga |
| g2f2 f4 || f2dB ABde | f2dB A4 | f2df afab | a2g2 g4 || gdBd g4 | fdAd f4 | gfed cABc | d2f2 d4 |]
%%begintext align
%% O-N-E stands for our band,
%% "Old New England" (I'm the _old_ part!), and this tune is for
%% Jane and Deanna with much love always from Bob.
%% Jane Orzechowski, fiddle; Deanna Stiles, fiddle, flute, piccolo.)
%%endtext

%%sep 1 1 500

%%sep 1 1 500

